X:4
T:Schottisch FCBb oct
T:Hanny Christen. Bd.IX Uri II, Schwyz, Unterwalden I. S.376 (st10485) orig. F,C,Bb-Dur
M:2/4
L:1/16
K:Cmaj
"F"AFCA F2C2 | "C7"GECG E2C2 | CGE2 CGE2 | CAF2 CAF2 | "F"AFCA F2C2 | "C7"GECG E2C2 | CGE2 CGE2 | "F"F2A2 F2 z2 :| 
|: "G7"G,4 A,B,CD | [L:1/8] "C"EA G2 | "G7"B>A GF | "C"AG E2 | "G7"G,2 A,/2B,/2C/2D/2 | "C"EA G2 | "G7"B>A GB, | "C"CE C z :| 
K:Fmaj
|: "F"AC AC | AA A/2G/2F | "C7"GC G>B, | "F"A,D C2 | AC AC | AA A/2G/2F | "C7"GG G/2F/2E | "F"FA F z :| 
K:Bbmaj
|: "Bb"DF B>F | "Cm/Eb"AG E/2D/2C | "F7"A,C/2D/2 EG | "Bb"F3 D/2D/2 | DF B>A | "C7"AG [L:1/16] cBAG | "Bb/F"FBAG "F7"F2A,2 | "Bb"B,2B,2 B,2 z2 :| 

